X:1
T: Peace Be With You
N:
C:
S:Rigadoon Royal
A:
O:
R:
M:2/2
K:Am
I:speed 200
%W: A
% voice 1 (1 lines, 29 notes)
K:Am
M:2/2
L:1/16
e4 ||A4 |B4 |c4 |d4 |e8 |a8 |g4 |e4 |f4 |e4 |d8 |c4 |e4 |A4 |B4 |c4 |d4 |e4 |a4 |g4 |e4 |f4 |e4 |d6 |c d e12 |e4 |
%W:
% voice 1 (1 lines, 27 notes)
A4 |B4 |c4 |d4 |e8 |a8 |g4 |e4 |f4 |e4 |d8 |c4 |e4 |A4 |B4 |c4 |d4 |e4 |a4 |g4 |e4 |f4 |e4 |d6 |c d e12 ||
%W: B
% voice 1 (1 lines, 36 notes)
e2 f2 ||g4 |d4 |d4 |e4 |f8 |e8 |f2 e2 |d2 c2 |B2 c2 |A2 B2 |^G12 |A2 B2 |c4 |d4 |e4 |f4 |e4 |A4 |a8 |e4 |d2 c2 |d2 c2 |B2 c2 |A12 |e2 f2 |
%W:
% voice 1 (1 lines, 32 notes)
g4 |d4 |d4 |e4 |f8 |e8 |f2 e2 |d2 c2 |B2 c2 |A2 B2 |^G12 |A2 B2 |c4 |d4 |e4 |f4 |e4 |A4 |a8 |e4 |d2 c2 |d2 c2 |B2 c2 |A12 |||
